icons/star-outline.svg

<svg xmlns="http://www.w3.org/2000/svg" width="24" height="24" viewBox="0 0 24 24">
  <path d="M10.0978581,3.61800797 L8.57929,8.29181 L3.665,8.29181 C1.72755278,8.29181 0.921986667,10.7710711 2.48945901,11.9098346 L6.46517558,14.7983766 L4.94657291,19.4721848 C4.34786727,21.3148021 6.45683974,22.8470137 8.02425617,21.7082163 L11.999944,18.8196656 L15.9757168,21.7082185 C17.5430982,22.847005 19.6520744,21.3148379 19.0534712,19.4722283 L17.5347049,14.7984753 L21.5105869,11.9098158 C23.0780129,10.7710569 22.2724189,8.29181 20.335,8.29181 L15.4208063,8.29196629 L13.9021419,3.61800797 C13.3033612,1.77544734 10.6966388,1.77544734 10.0978581,3.61800797 Z M10.4813988,8.90983987 L11.9999587,4.23608024 L13.5186437,8.90984761 C13.7862224,9.73382206 14.5542224,10.29181 15.4207,10.29181 L20.3350292,10.2917725 L16.3592131,13.1803842 C15.6582232,13.6895769 15.3649452,14.5924222 15.6327659,15.4164861 L17.1512911,20.0902184 L13.1755832,17.2016815 C12.4746387,16.6923219 11.5253613,16.6923219 10.824344,17.2017344 L6.84868607,20.0902184 L8.36728709,15.4164152 C8.63503874,14.5923794 8.34170076,13.6895797 7.64068689,13.1803406 L3.66501269,10.2917884 L8.57929,10.29181 C9.44573915,10.29181 10.2136568,9.73388604 10.4813988,8.90983987 Z"/>
</svg>

<svg xmlns="http://www.w3.org/2000/svg" viewBox="0 0 24 24">
  <path d="M10.1 3.62 8.58 8.29H3.66a2 2 0 0 0-1.17 3.62l3.98 2.89-1.52 4.67a2 2 0 0 0 3.07 2.24L12 18.82l3.98 2.89a2 2 0 0 0 3.07-2.24l-1.52-4.67 3.98-2.89a2 2 0 0 0-1.18-3.62h-4.9L13.9 3.62a2 2 0 0 0-3.8 0zm.38 5.29L12 4.24l1.52 4.67a2 2 0 0 0 1.9 1.38h4.92l-3.98 2.89a2 2 0 0 0-.73 2.24l1.52 4.67-3.97-2.89a2 2 0 0 0-2.36 0l-3.97 2.9 1.52-4.67a2 2 0 0 0-.73-2.24L3.67 10.3h4.9a2 2 0 0 0 1.91-1.38z"/>
</svg>
